assets/svg/1f196.svg

<svg xmlns="http://www.w3.org/2000/svg" viewBox="0 0 64 64" enable-background="new 0 0 64 64"><path fill="#42ade2" d="M62,52c0,5.523-4.477,10-10,10H12C6.477,62,2,57.523,2,52V12C2,6.477,6.477,2,12,2h40
		c5.523,0,10,4.477,10,10V52z"/><g fill="#fff"><path d="m44 42c-5.513 0-10-4.486-10-10 0-5.514 4.487-9.999 10-9.999 2.566 0 5.01.969 6.87 2.732l-2.29 2.421c-1.243-1.175-2.869-1.821-4.58-1.821-3.676 0-6.666 2.99-6.666 6.667s2.99 6.667 6.666 6.667c3.102 0 5.713-2.127 6.455-4.998h-6.455v-3.335h10v1.666c0 5.515-4.484 10-10 10"/><path d="m26.667 22v14.31l-14.311-14.31h-2.356v20h3.334v-14.312l14.31 14.312h2.356v-9-11z"/></g></svg>

<svg xmlns="http://www.w3.org/2000/svg" width="64" height="64" viewBox="0 0 64 64"><path fill="#4FD1D9" d="M62 52c0 5.523-4.477 10-10 10H12C6.477 62 2 57.523 2 52V12C2 6.477 6.477 2 12 2h40c5.523 0 10 4.477 10 10v40z"/><path fill="#FFF" d="M44 42c-5.513 0-10-4.486-10-10.002C34 26.484 38.487 22 44 22c2.566 0 5.007.969 6.87 2.732l-2.29 2.42a6.643 6.643 0 0 0-4.58-1.82 6.673 6.673 0 0 0-6.666 6.666A6.674 6.674 0 0 0 44 38.666a6.676 6.676 0 0 0 6.455-4.998H44v-3.336h10v1.666C54 37.514 49.516 42 44 42zM26.667 22v14.309L12.356 22H10v20h3.334V27.688L27.644 42H30V22z"/></svg>
